X:580
T: IM SOMMER DA GEHN WIR UEBER LAND
N: E1888A
O: Europa, Mitteleuropa, Deutschland, Berlin
R: Kinder - Lied, Spiel, Reigen
M: 2/4
L: 1/8
K: G
D | G2GD | G2G
D | GDGB | A2z
B | ccAA | BBG
G | A2FF | GBd
B | ccAA | BBG
G | A2FF | G2z

@@@ Tune index: 5264
